X: 20
M:6/8
L:1/8
K:F
"Slow"u">"C">"D">"E|FzG AzB|cf2z2 f|fzd Bzd|c2z ">"C">"D">"E|
a3 c'2a| g3 b2g|azb gza|f2z||
u">"c">"d">"e|f3 a2f|e3 g2e|d^cd fed|cAz z2A|d3-d z d|
c3-cz A|G2^F G2A|G3 cde|f3 a2f|
e3 g2e|d^cd fed|cAz z2[aA]|[d3-d'3-][d'd] z [dd']|
[c3-c'3-] [cc']z [Aa]|[g2G2][^F^f] [g2G2][aA]|[=f3=F3]|]


